src/assets/imgs/degree_icon.svg

<svg viewBox="0 0 64 64" xmlns="http://www.w3.org/2000/svg">
  <path d="M61 8H3a1 1 0 0 0-1 1v38a1 1 0 0 0 1 1h36v7a1 1 0 0 0 .53.88 1 1 0 0 0 1-.05L46 52.2l5.45 3.63A1 1 0 0 0 53 55v-7h8a1 1 0 0 0 1-1V9a1 1 0 0 0-1-1M46 45a7 7 0 1 1 7-7 7 7 0 0 1-7 7m14 1h-7v-2a.9.9 0 0 0-.06-.28 9 9 0 1 0-13.88 0A.9.9 0 0 0 39 44v2H4V10h56Z"/>
  <path d="M12 22h40a4 4 0 0 0 0-8H12a4 4 0 0 0 0 8m26 5H25a1 1 0 0 0 0 2h13a1 1 0 0 0 0-2m-4 7H15a1 1 0 0 0 0 2h19a1 1 0 0 0 0-2"/>
  <circle cx="46" cy="38" r="4"/>
</svg>

<?xml version="1.0" ?><svg viewBox="0 0 64 64" xmlns="http://www.w3.org/2000/svg"><title/><g id="certification"><path d="M61,8H3A1,1,0,0,0,2,9V47a1,1,0,0,0,1,1H39v7a1,1,0,0,0,.53.88,1,1,0,0,0,1-.05L46,52.2l5.45,3.63A1,1,0,0,0,53,55V48h8a1,1,0,0,0,1-1V9A1,1,0,0,0,61,8ZM46,45a7,7,0,1,1,7-7A7,7,0,0,1,46,45Zm14,1H53V44a.88.88,0,0,0-.06-.28,9,9,0,1,0-13.88,0A.88.88,0,0,0,39,44v2H4V10H60Z"/><path d="M12,22H52a4,4,0,0,0,0-8H12a4,4,0,0,0,0,8Z"/><path d="M38,27H25a1,1,0,0,0,0,2H38a1,1,0,0,0,0-2Z"/><path d="M34,34H15a1,1,0,0,0,0,2H34a1,1,0,0,0,0-2Z"/><circle cx="46" cy="38" r="4"/></g></svg>
